T: Mrs. Kinney's
M: 3/4
L: 1/8
K: Dmaj
d4 ed | c4 dc | (3BcB G2 B2 | (3ABA F2 D2 |d3 d ed | c4 B2 | (3ABA G2 (3EFE | D3 D FA |(3ded d2 FA | (3cdc c2 FA | B2 (3GAG B2 | A2 (3FGF D2 |dF (3ddd ed | cE (3ccc dc | (3BcB A2 (3GFE | D6 ||| d4 cB | ~ or ~ | d4 ed | ~ having heard and played both
